logo/v2/logo-white.svg

<svg width="140" height="126" viewBox="0 0 140 126" xmlns="http://www.w3.org/2000/svg" xmlns:xlink="http://www.w3.org/1999/xlink"><title>logo</title><desc>Created using Figma</desc><g transform="translate(261 286)" fill="#FFF"><use xlink:href="#a" transform="translate(-261 -286)"/><use xlink:href="#b" transform="translate(-205 -233)"/></g><defs><path id="a" fill-rule="evenodd" d="M110.602 39.129c1.514.437 3.016.913 4.507 1.426C130.229 45.784 140 53.975 140 62.444c0 8.832-10.442 17.468-26.492 22.81-.848.282-1.717.553-2.603.816a79.12 79.12 0 0 1 .839 3.76c3.169 16.076.729 29.291-6.781 33.657-7.27 4.228-19.022.075-30.92-10.21a91.799 91.799 0 0 1-3.785-3.469 79.683 79.683 0 0 1-2.921 2.705c-12.284 10.786-24.899 15.261-32.415 10.908-7.277-4.217-9.564-16.517-6.636-32.009.32-1.684.687-3.358 1.1-5.02a79.442 79.442 0 0 1-3.786-1.19C10.161 79.902 0 71.16 0 62.444c0-8.439 9.466-16.575 24.288-21.766a92.636 92.636 0 0 1 5.181-1.636 94.35 94.35 0 0 1-1.034-4.659c-3.072-15.765-.91-28.364 6.386-32.607 7.61-4.425 20.282.327 32.924 11.603.787.703 1.56 1.42 2.32 2.153a93.773 93.773 0 0 1 3.486-3.214C85.614 1.773 97.559-2.639 104.862 1.592c7.617 4.412 9.848 17.814 6.436 34.449a85.768 85.768 0 0 1-.696 3.088zm-1.326 41.16a77.73 77.73 0 0 0 2.351-.738h.001c13.857-4.613 22.392-11.67 22.392-17.107 0-5.104-7.903-11.728-20.858-16.208a87.981 87.981 0 0 0-4.162-1.32c-1.722 5.6-4.021 11.514-6.814 17.558 2.926 6.19 5.318 12.181 7.09 17.816zm-2.726 29.268c.928-5.024.728-11.452-.673-18.56a73.647 73.647 0 0 0-.757-3.403c-5.8 1.347-12.193 2.333-18.962 2.936-3.847 5.595-7.79 10.634-11.735 14.969a86.344 86.344 0 0 0 3.52 3.224c10.176 8.796 19.611 12.13 24.023 9.565 2.074-1.206 3.75-4.216 4.584-8.731zm-68.64 8.659c2.075 1.201 5.508 1.158 9.819-.371 4.797-1.703 10.24-5.086 15.672-9.856.91-.8 1.799-1.623 2.668-2.467-4.088-4.407-8.145-9.44-12.018-14.915-6.784-.553-13.132-1.47-18.866-2.744a86.484 86.484 0 0 0-1.023 4.67c-2.503 13.247-.668 23.125 3.748 25.683zM11.206 70.804c3.864 3.323 9.502 6.37 16.329 8.713 1.143.391 2.295.753 3.456 1.087 1.768-5.791 4.099-11.872 6.908-18.014-2.773-6.052-5.071-12.037-6.823-17.761a85.98 85.98 0 0 0-4.819 1.523C13.581 50.792 5.98 57.323 5.98 62.444c0 2.406 1.754 5.372 5.226 8.36zM37.817 6.976c-4.397 2.556-6.144 12.746-3.513 26.254v-.001a88.42 88.42 0 0 0 .962 4.333c5.795-1.319 12.098-2.303 18.682-2.916 3.84-5.444 7.86-10.439 11.926-14.826a78.35 78.35 0 0 0-2.1-1.948C52.858 8.136 42.5 4.252 37.817 6.976zm52.62 34.2a191.323 191.323 0 0 1 4.257 7.033 209.781 209.781 0 0 1 4.027 7.318c1.771-4.164 3.275-8.226 4.481-12.11a130.96 130.96 0 0 0-12.766-2.241zm-12.131-7.072c-2.718-3.637-5.48-6.989-8.24-9.99-2.8 3.036-5.587 6.383-8.307 9.986 5.513-.259 11.034-.258 16.547.004zM41.33 55.523a176.753 176.753 0 0 1 8.244-14.358c-4.438.557-8.698 1.29-12.692 2.188 1.217 3.94 2.707 8.02 4.448 12.17zM36.8 82.068c3.993.873 8.317 1.57 12.902 2.084a177.773 177.773 0 0 1-8.365-14.5c-1.779 4.239-3.302 8.406-4.538 12.416zm25.009 9.004c2.761 3.656 5.589 7.054 8.423 10.127 2.74-3.03 5.493-6.434 8.22-10.156-2.777.124-5.598.188-8.452.188-2.778 0-5.51-.053-8.191-.159zm41.671-9.264c-1.253-3.942-2.831-8.087-4.702-12.372a191.016 191.016 0 0 1-4.06 7.452 210.21 210.21 0 0 1-4.298 7.156c4.618-.556 9-1.306 13.06-2.236zm-20.66 2.964a197.066 197.066 0 0 0 6.717-10.886 181.252 181.252 0 0 0 6.016-11.383 197.27 197.27 0 0 0-6.035-11.284 181.056 181.056 0 0 0-6.746-10.82 168.674 168.674 0 0 0-25.52-.004 168.906 168.906 0 0 0-6.788 10.857v-.002a170.762 170.762 0 0 0-5.955 11.338 170.54 170.54 0 0 0 12.815 22.234c4.082.266 8.32.402 12.676.402 4.374 0 8.667-.154 12.82-.452zm22.621-49.944c2.945-14.363 1.122-25.315-3.566-28.031-4.402-2.55-14.062 1.018-24.398 10.053a88.148 88.148 0 0 0-3.22 2.967c4.002 4.33 7.988 9.334 11.835 14.837 6.604.622 12.911 1.624 18.719 2.97.227-.928.436-1.86.63-2.796z"/><path id="b" fill-rule="evenodd" d="M0 0h6.826v6.552H0V0zm0 13.073V19h6.826v-5.927H0zm12.595 0V19H29v-5.927H12.595zM29 6.552V0H12.595v6.552H29z"/></defs></svg>

<?xml version="1.0" encoding="UTF-8" standalone="no"?>
<!DOCTYPE svg PUBLIC "-//W3C//DTD SVG 1.1//EN" "http://www.w3.org/Graphics/SVG/1.1/DTD/svg11.dtd">
<svg width="100%" height="100%" viewBox="0 0 200 200" version="1.1" xmlns="http://www.w3.org/2000/svg" xmlns:xlink="http://www.w3.org/1999/xlink" xml:space="preserve" xmlns:serif="http://www.serif.com/" style="fill-rule:evenodd;clip-rule:evenodd;stroke-linejoin:round;stroke-miterlimit:1.41421;">
    <g transform="matrix(1,0,0,1,291,323.438)">
        <g id="a" transform="matrix(1.18916,0,0,1.18916,-274.241,-297.834)">
            <path d="M110.602,39.129C112.116,39.566 113.618,40.042 115.109,40.555C130.229,45.784 140,53.975 140,62.444C140,71.276 129.558,79.912 113.508,85.254C112.66,85.536 111.791,85.807 110.905,86.07C111.215,87.316 111.495,88.57 111.744,89.83C114.913,105.906 112.473,119.121 104.963,123.487C97.693,127.715 85.941,123.562 74.043,113.277C72.749,112.156 71.487,110.999 70.258,109.808C69.307,110.734 68.333,111.636 67.337,112.513C55.053,123.299 42.438,127.774 34.922,123.421C27.645,119.204 25.358,106.904 28.286,91.412C28.606,89.728 28.973,88.054 29.386,86.392C28.114,86.027 26.852,85.63 25.6,85.202C10.161,79.902 0,71.16 0,62.444C0,54.005 9.466,45.869 24.288,40.678C25.999,40.082 27.726,39.537 29.469,39.042C29.085,37.498 28.74,35.944 28.435,34.383C25.363,18.618 27.525,6.019 34.821,1.776C42.431,-2.649 55.103,2.103 67.745,13.379C68.532,14.082 69.305,14.799 70.065,15.532C71.2,14.431 72.362,13.36 73.551,12.318C85.614,1.773 97.559,-2.639 104.862,1.592C112.479,6.004 114.71,19.406 111.298,36.041C111.085,37.075 110.853,38.104 110.602,39.129ZM109.276,80.289C110.064,80.055 110.847,79.809 111.627,79.551L111.628,79.551C125.485,74.938 134.02,67.881 134.02,62.444C134.02,57.34 126.117,50.716 113.162,46.236C111.786,45.762 110.398,45.322 109,44.916C107.278,50.516 104.979,56.43 102.186,62.474C105.112,68.664 107.504,74.655 109.276,80.29L109.276,80.289ZM106.55,109.557C107.478,104.533 107.278,98.105 105.877,90.997C105.652,89.857 105.399,88.722 105.12,87.594C99.32,88.941 92.927,89.927 86.158,90.53C82.311,96.125 78.368,101.164 74.423,105.499C75.566,106.606 76.74,107.681 77.943,108.723C88.119,117.519 97.554,120.853 101.966,118.288C104.04,117.082 105.716,114.072 106.55,109.557ZM37.91,118.216C39.985,119.417 43.418,119.374 47.729,117.845C52.526,116.142 57.969,112.759 63.401,107.989C64.311,107.189 65.2,106.366 66.069,105.522C61.981,101.115 57.924,96.082 54.051,90.607C47.267,90.054 40.919,89.137 35.185,87.863C34.801,89.41 34.46,90.967 34.162,92.533C31.659,105.78 33.494,115.658 37.91,118.216ZM11.206,70.804C15.07,74.127 20.708,77.174 27.535,79.517C28.678,79.908 29.83,80.27 30.991,80.604C32.759,74.813 35.09,68.732 37.899,62.59C35.126,56.538 32.828,50.553 31.076,44.829C29.455,45.289 27.848,45.797 26.257,46.352C13.581,50.792 5.98,57.323 5.98,62.444C5.98,64.85 7.734,67.816 11.206,70.804ZM37.817,6.976C33.42,9.532 31.673,19.722 34.304,33.23L34.304,33.229C34.588,34.681 34.909,36.126 35.266,37.562C41.061,36.243 47.364,35.259 53.948,34.646C57.788,29.202 61.808,24.207 65.874,19.82C65.186,19.158 64.486,18.508 63.774,17.872C52.858,8.136 42.5,4.252 37.817,6.976ZM90.437,41.176C91.906,43.49 93.326,45.834 94.694,48.209C96.085,50.621 97.427,53.061 98.721,55.527C100.492,51.363 101.996,47.301 103.202,43.417C98.986,42.46 94.726,41.712 90.436,41.176L90.437,41.176ZM78.306,34.104C75.588,30.467 72.826,27.115 70.066,24.114C67.266,27.15 64.479,30.497 61.759,34.1C67.272,33.841 72.793,33.842 78.306,34.104ZM41.33,55.523C43.852,50.611 46.603,45.82 49.574,41.165C45.136,41.722 40.876,42.455 36.882,43.353C38.099,47.293 39.589,51.373 41.33,55.523ZM36.8,82.068C40.793,82.941 45.117,83.638 49.702,84.152C46.688,79.453 43.896,74.614 41.337,69.652C39.558,73.891 38.035,78.058 36.799,82.068L36.8,82.068ZM61.809,91.072C64.57,94.728 67.398,98.126 70.232,101.199C72.972,98.169 75.725,94.765 78.452,91.043C75.675,91.167 72.854,91.231 70,91.231C67.222,91.231 64.49,91.178 61.809,91.072ZM103.48,81.808C102.227,77.866 100.649,73.721 98.778,69.436C97.48,71.95 96.126,74.434 94.718,76.888C93.333,79.302 91.9,81.687 90.42,84.044C95.038,83.488 99.42,82.738 103.48,81.808ZM82.82,84.772C85.176,81.217 87.416,77.586 89.537,73.886C91.677,70.164 93.683,66.367 95.553,62.503C93.664,58.677 91.651,54.914 89.518,51.219C87.397,47.534 85.147,43.925 82.772,40.399C74.278,39.753 65.747,39.752 57.252,40.395C54.853,43.927 52.589,47.549 50.464,51.252L50.464,51.25C48.338,54.954 46.352,58.736 44.509,62.588C48.216,70.311 52.5,77.743 57.324,84.822C61.406,85.088 65.644,85.224 70,85.224C74.374,85.224 78.667,85.07 82.82,84.772ZM105.441,34.828C108.386,20.465 106.563,9.513 101.875,6.797C97.473,4.247 87.813,7.815 77.477,16.85C76.379,17.812 75.306,18.801 74.257,19.817C78.259,24.147 82.245,29.151 86.092,34.654C92.696,35.276 99.003,36.278 104.811,37.624C105.038,36.696 105.247,35.764 105.441,34.828Z" style="fill:white;"/>
        </g>
        <g id="b" transform="matrix(1.18916,0,0,1.18916,-207.648,-234.809)">
            <path d="M0,0L6.826,0L6.826,6.552L0,6.552L0,0ZM0,13.073L0,19L6.826,19L6.826,13.073L0,13.073ZM12.595,13.073L12.595,19L29,19L29,13.073L12.595,13.073ZM29,6.552L29,0L12.595,0L12.595,6.552L29,6.552Z" style="fill:white;"/>
        </g>
    </g>
</svg>
